X:1145
T:Viotti's Pollacca.
M:3/4
L:1/16
Q:1/4=104
Z:Jack Campin * www.campin.me.uk * 2009
K:A
E2|(A2A2 A)cBG A2c2|ed B4 ec A2`c2|BG E4   FG ABcd| cdec BAGF  E2`E2 |
   (A2A2 A)cBG A2A2|ed B4 cd ef`ga|ae c4   ec edBG|(G8         A2)G2 |
   (A2A2 A)cBG A2c2|ed B4 e2`c2 Ac|BG E4   FG ABcd| cdec BAGF  E2`E2 |
    A2A2 A`cBG A2c2|ed B4 ec A2`c2|ae c4   ec edBG| G8         AE`Ac |
    e2e4    ag baec|ed d4 ba`gf ed|ce`ag bagf fedc| BAGF E^DEG Be=dB |
    A2A2 A`cBG A2c2|fd B4 cd ef`ga|ae c4   ec edBG|(G8         A2)z2|]
<end>
<start>
